!!!!SEGMENT: pl-kk--kk-i-88--004-003_golabek-jakub--missa-4ta-et-in-terra.krn
!!!cenid: 17xx:2592
!!!COM: Gołąbek, Jakub
!!!COM-rismID: pe30008748
!!!CDT: 1739-1789/03/30
!!!CNT: Polish
!!!OPR: Missa 4ta
!!!OTL: Et in terra
!!!OMV: 003
!!!PDT:
!!!AGN: Sacred; Mass
!!!YEC: Copyright 2022 Narodowy Instytut Fryderyka Chopina (https://polishscores.org)
!!!YEM: License CC-BY-4.0 (https://creativecommons.org/licenses/by/4.0)
!!!SMS-siglum: PL-Kk
!!!SMS-shelfmark: Kk.I.88
!!!SMS-variant:
!!!SMS-altvar:
!!!SMS-shelfwork: 004-003 M
!!!NIFC-rismSourceID: 1001164072
!!!NIFC-rismChildID: 1001164083
!!!NIFC-islandoraID:
!!!URL-pdf-islandora: https://repozytorium.nifc.pl/islandora/object/pl-kk%3A3086/datastream/PDF/view
!!!URL-scan: https://polish.musicsources.pl/pl/lokalizacje/galeria/rekopisy/6148-missa/4 @EN{Scan on Polish Music Sources Website} @PL{Skany w portalu Dziedzictwo Muzyki Polskiej w otwartym dostępie}
!!!IIIF:
!!!ONB-nifc: UWAGA: C - f. 8r-9v; A - f. 16r-17v; T - f. 24r-25v; B - f. 37r-39v; B rip - f. 37r-39v. Proszę uwzględniać B rip. Części Mszy: 1. Kyrie, 2. Christe, 3. Et in terra, 4. Sanctus, 5, Benedictus, 6. Osanna, 7. Agnus Dei.
!!!AIN: 1 alto 2 bass 1 soprn 1 tenor
!!!key:
**kern	**text	**dynam	**kern	**text	**dynam	**kern	**text	**kern	**text	**kern	**text
*part5	*part5	*part5	*part4	*part4	*part4	*part3	*part3	*part2	*part2	*part1	*part1
*staff5	*staff5	*	*staff4	*staff4	*	*staff3	*staff3	*staff2	*staff2	*staff1	*staff1
*I"Baſso	*	*	*I"Baſso	*	*	*I"Tenore	*	*I"Alto	*	*I"Canto	*
*I'B rip	*	*	*I'B	*	*	*I'T	*	*I'A	*	*I'S	*
*Ibass	*	*	*Ibass	*	*	*Itenor	*	*Ialto	*	*Isoprn	*
*ICvox	*	*	*ICvox	*	*	*ICvox	*	*ICvox	*	*ICvox	*
*clefF4	*	*	*clefF4	*	*	*clefC4	*	*clefC3	*	*clefC1	*
*k[f#]	*	*	*k[f#]	*	*	*k[f#]	*	*k[f#]	*	*k[f#]	*
*G:	*	*	*G:	*	*	*G:	*	*G:	*	*G:	*
*M3/2	*	*	*M3/2	*	*	*M3/2	*	*M3/2	*	*M3/2	*
=1	=1	=1	=1	=1	=1	=1	=1	=1	=1	=1	=1
*2\right	*	*	*2\right	*	*	*2\right	*	*2\right	*	*2\right	*
!LO:TX:a:t=Lente	!	!	!LO:TX:a:t=Lente	!	!	!	!	!	!	!	!
2G\	Et	.	2G\	Et	.	2d\	Et	2g\	Et	2b\	Et
2B\	.	.	2B\	.	.	2B\	.	2d\	.	2g/	.
2c\	in	.	2c\	in	.	2G/	in	2e\	in	2g/	in
=2	=2	=2	=2	=2	=2	=2	=2	=2	=2	=2	=2
1d	ter-	.	1d	ter-	.	2G/	ter-	2d/	ter-	2b\	ter-
.	.	.	.	.	.	2F#/	.	2c/	.	2a\	.
2e\	-ra	.	2e\	-ra	.	2G/	-ra	2B/	-ra	2g\	-ra
=3	=3	=3	=3	=3	=3	=3	=3	=3	=3	=3	=3
4c\	pax	.	4c\	pax	.	4A\	pax	4e\	pax	4a\	pax
4c\	ho-	.	4c\	ho-	.	4A\	ho-	4a\	go-	4cc\	ho-
2d\	-mi-	.	2d\	-mi-	.	2d\	-mi-	2g\	-mi-	2b\	-mi-
2D/	-ni-	.	2D/	-ni-	.	2d\	-ni-	2f#\	-ni-	2a\	-ni-
=4	=4	=4	=4	=4	=4	=4	=4	=4	=4	=4	=4
2G\	-bus	.	2G\	-bus	.	2d\	-bus	2g\	-bus	2b\	-bus
4G\	bo-	.	4G\	bo-	.	4B\	bo-	4b\	bo-	4dd\	bo-
4G\	-nae-	.	4G\	-nae-	.	4G\	-nae-	4b\	-nae-	4dd\	-nae-
4F#\	-vo-	.	4F#\	-vo-	.	4F#/	-vo-	4a\	-vo-	4cc\	-vo-
4G\	-lun-	.	4G\	-lun-	.	4G/	-lun-	4g\	-lun-	4b\	-lun-
=5	=5	=5	=5	=5	=5	=5	=5	=5	=5	=5	=5
2D\	-ta-	.	2D\	-ta-	.	2d\	-ta-	2g\	-ta-	2b\	-ta-
2D\	-tis,	.	2D\	-tis.	.	2d\	-tis	2f#\	-tis.	2a\	-tis,
2D\	Lau-	.	2D\	Lau-	.	2r	.	4f#\	Lau-	4a\	Lau-
.	.	.	.	.	.	.	.	4g\	.	4b\	.
!	!	!	!	!	!	!	!	!	!	!LO:LB:g=original	!
=6	=6	=6	=6	=6	=6	=6	=6	=6	=6	=6	=6
2D\	-da-	.	2D\	-da-	.	0.r	.	4a\	-da-	4cc\	-da-
.	.	.	.	.	.	.	.	4g\	.	4b\	.
2F#\	.	.	2F#\	.	.	.	.	4f#\	.	4a\	.
.	.	.	.	.	.	.	.	4e\	.	4cc\	.
2D\	-mus	.	2D\	-mus	.	.	.	4d\	-mus	4b\	-mus,
.	.	.	.	.	.	.	.	4c\	.	4a\	.
!LO:LB:g=original	!	!	!LO:LB:g=original	!	!	!	!	!LO:LB:g=original	!	!	!
=7	=7	=7	=7	=7	=7	=7	=7	=7	=7	=7	=7
2G\	te,	.	2G\	te,	.	.	.	2B/	te,	2g\	te,
2D\	be-	.	2D\	be-	.	.	.	2f#\	be-	2a\	be-
2D\	-ne-	.	2D\	-ne-	.	.	.	4f#\	-ne-	4a\	-ne-
.	.	.	.	.	.	.	.	4g\	.	4b\	.
=8	=8	=8	=8	=8	=8	=8	=8	=8	=8	=8	=8
2D\	-di-	.	2D\	-di-	.	1.r	.	4a\	-di-	4cc\	-di-
.	.	.	.	.	.	.	.	4g\	.	4b\	.
2F#\	-ci-	.	2F#\	-ci-	.	.	.	4f#\	.	4a\	-ci-
.	.	.	.	.	.	.	.	4e\	-ci-	4cc\	-mus
2D\	-mus	.	2D\	-mus	.	.	.	4d\	-mus	4b\	.
.	.	.	.	.	.	.	.	4c\	.	4a\	.
!	!	!	!	!	!	!LO:LB:g=original	!	!	!	!	!
=9	=9	=9	=9	=9	=9	=9	=9	=9	=9	=9	=9
2G\	te,	.	2G\	te,	.	2r	.	2B/	te	2g/	te
2G\	a-	.	2G\	a-	.	2B\	a-	2d\	a-	2b\	a-
4G\	-do-	.	4G\	-do-	.	2B\	-do-	2fn\	-do-	2dd\	-do-
8A\L	.	.	8A\L	.	.	.	.	.	.	.	.
8B\J	.	.	8B\J	.	.	.	.	.	.	.	.
=10	=10	=10	=10	=10	=10	=10	=10	=10	=10	=10	=10
2c\	-ra-	.	2c\	-ra-	.	2G/	-ra-	2e\	-ra-	2cc\	-ra-
2G\	-mus	.	2G\	-mus	.	2G/	-mus	2d\	-mus	2b\	-mus
2C/	te,	.	2C/	te,	.	2G/	te	2e\	te	2g/	te
=11	=11	=11	=11	=11	=11	=11	=11	=11	=11	=11	=11
2C/	glo-	.	2C/	glo-	.	2c\	glo-	2e\	glo-	2g\	glo-
4C/	-ri-	.	4C/	-ri-	.	4c\	-ri-	4f#X\	-ri-	4a\	-ri-
4C/	-fi-	.	4C/	-fi-	.	4c\	-fi-	4g\	-fi-	4b\	-fi-
4C/	-ca-	.	4C/	-ca-	.	4c\	-ca-	4a\	-ca-	4cc\	-ca-
4C#X/	-mus	.	4C#X/	-mus	.	4c#X\	-mus	4g\	-mus	4b\	-mus
=12	=12	=12	=12	=12	=12	=12	=12	=12	=12	=12	=12
1D	te	.	1D	te.	.	1d	te	1f#	te	1a	te
2r	.	.	2r	.	.	2r	.	2r	.	2r	.
!	!	!	!	!	!	!	!	!LO:LB:g=original	!	!LO:LB:g=original	!
=13	=13	=13	=13	=13	=13	=13	=13	=13	=13	=13	=13
2D\	Gra-	.	2D\	Gra-	.	2d\	Gra-	1a	Gra-	1ff#	Gra-
2F#\	.	.	2F#\	.	.	2A\	.	.	.	.	.
4D\	-ti-	.	4D\	-ti-	.	4A\	-ti-	8g\L	-ti-	8ee\L	-ti-
.	.	.	.	.	.	.	.	8f#\J	.	8dd\J	.
4D\	-as	.	4D\	-as	.	4A\	-as	8e\L	-as	8cc#X\L	-as
.	.	.	.	.	.	.	.	8d\J	.	8dd\J	.
!LO:LB:g=original	!	!	!LO:LB:g=original	!	!	!	!	!	!	!	!
=14	=14	=14	=14	=14	=14	=14	=14	=14	=14	=14	=14
2A\	a-	.	2A\	a-	.	2e\	a-	2e\	a-	2cc\	a-
2A\	-gi-	.	2A\	-gi-	.	2d\	-gi-	2f#\	-gi-	2dd\	-gi-
2A\	-mus	.	2A\	-mus	.	2c#X\	-mus	2g\	-mus	2ee\	-mus
=15	=15	=15	=15	=15	=15	=15	=15	=15	=15	=15	=15
2d\	ti-	.	2d\	ti-	.	2A\	ti-	2g\	ti-	2ee\	ti-
2D\	-bi	.	2D\	-bi	.	2A\	-bi	2f#\	-bi	2dd\	-bi
4D\	p(ro)p-	.	4D\	p(ro)p-	.	4A\	p(ro)p-	4a\	p(ro)-	4ff#\	p(ro)p-
4F#\	-ter	.	4F#\	-ter	.	4A\	-ter	4f#\	-pter	4dd\	-ter
!	!	!	!	!	!	!LO:LB:g=original	!	!	!	!	!
=16	=16	=16	=16	=16	=16	=16	=16	=16	=16	=16	=16
1A	ma-	.	1A	ma-	.	2c#X\	ma-	2g\	ma-	2ee\	ma-
.	.	.	.	.	.	2d\	.	2f#\	.	2dd\	.
2A\	-gnam	.	2A\	-gnam	.	2e\	-gnam	2e\	-gnam	2cc#X\	-gnam
=17	=17	=17	=17	=17	=17	=17	=17	=17	=17	=17	=17
2.F#\	glo-	.	2.F#\	glo-	.	2.A/	glo-	2.f#\	glo-	2.dd\	glo-
4E\	-ri-	.	4E\	-ri-	.	4G/	-ri-	4g\	-am	4ee\	-ri-
2D\	-am	.	2D\	-am	.	2F#/	-am	2a\	-am	2ff#\	-am
=18	=18	=18	=18	=18	=18	=18	=18	=18	=18	=18	=18
2G\	tu-	.	2G\	tu-	.	2B\	tu-	4b\	tu-	4gg\	tu-
.	.	.	.	.	.	.	.	4g\	.	4ee\	.
2A\	.	.	2A\	.	.	1A	.	2f#\	.	2dd\	.
2AA/	.	.	2AA/	.	.	.	.	2e\	.	2cc#X\	.
!	!	!	!	!	!	!	!	!LO:LB:g=original	!	!	!
=19	=19	=19	=19	=19	=19	=19	=19	=19	=19	=19	=19
2D/	-am.	.	2D/	-am.	.	2A\	-am	2f#\	-am,	2dd\	-am
!	!	!	!	!	!	!	!	!	!	!LO:LB:g=original	!
2cn\	Do-	.	2cn\	Do-	.	2A\	Do-	2f#\	Do-	2dd\	Do-
4c\	-mi-	.	4c\	-mi-	.	4A\	-mi-	4f#\	-mi-	4dd\	-mi-
4c\	-ne	.	4c\	-ne	.	4A\	-ne	4f#\	-ne	4dd\	-ne
=20	=20	=20	=20	=20	=20	=20	=20	=20	=20	=20	=20
2B\	De-	.	2B\	De-	.	2B\	De-	2g\	De-	1dd	De-
2A\	.	.	2A\	.	.	2c\	.	2a\	.	.	.
2G\	-us	.	2G\	-us	.	2d\	-us	2b\	-us	2dd\	-us
!LO:LB:g=original	!	!	!LO:LB:g=original	!	!	!	!	!	!	!	!
=21	=21	=21	=21	=21	=21	=21	=21	=21	=21	=21	=21
1F#	rex	.	1F#	rex	.	1d	rex	1a	Rex	1cc	rex
2G\	cae-	.	2G\	cae-	.	2d\	cae-	2g\	cae-	2b\	cae-
=22	=22	=22	=22	=22	=22	=22	=22	=22	=22	=22	=22
2D\	-les-	.	2D\	-les-	.	2d\	-les-	2f#\	-les-	2a\	-les-
2D\	-tis	.	2D\	-tis	.	2d\	-tis	2f#\	-tis	2a\	-tis
4D\	De-	.	4D\	De-	.	4d\	De-	4f#\	De-	4dd\	De-
4E\	-us	.	4E\	-us	.	4d\	-us	4g\	-us	4dd\	-us
!	!	!	!	!	!	!LO:LB:g=original	!	!	!	!	!
=23	=23	=23	=23	=23	=23	=23	=23	=23	=23	=23	=23
4F#\	Pa-	.	4F#\	Pa-	.	4c\	Pa-	4a\	Pa-	1.dd	Pa-
4G\	.	.	4G\	.	.	4B\	.	4g\	.	.	.
4A\	.	.	4A\	.	.	4A\	.	4f#\	.	.	.
4B\	.	.	4B\	.	.	4G\	.	4g\	.	.	.
4c\	.	.	4c\	.	.	4F#\	.	4a\	.	.	.
4A\	.	.	4A\	.	.	4A\	.	4f#\	.	.	.
=24	=24	=24	=24	=24	=24	=24	=24	=24	=24	=24	=24
4G\	.	.	4G\	.	.	4B\	.	4b\	.	4dd\	.
4F#\	.	.	4F#\	.	.	4c\	.	4a\	.	4cc\	.
4G\	.	.	4G\	.	.	4d\	.	4g\	.	4b\	.
4A\	.	.	4A\	.	.	4c\	.	4f#\	.	4cc\	.
4B\	-ter	.	4B\	-ter	.	4B\	-ter	4g\	-ter	2dd\	-ter
4c\	.	.	4c\	.	.	4A\	.	4a\	.	.	.
=25	=25	=25	=25	=25	=25	=25	=25	=25	=25	=25	=25
2d\	om-	.	2d\	om-	.	2G/	om-	2b\	om-	2dd\	om-
2.D\	-ni-	.	2.D\	-ni-	.	2.F#/	-ni-	2.a\	-ni-	2.dd\	-ni-
4D\	-po-	.	4D\	-po-	.	4F#/	-po-	4a\	-po-	4dd\	-po-
!	!	!	!	!	!	!	!	!LO:PB:g=original	!	!	!
=26	=26	=26	=26	=26	=26	=26	=26	=26	=26	=26	=26
2G\	-tens.	.	2G\	-tens.	.	2G/	-tens.	2g\	-tens	2b\	-tens
2Fn\	Do-	.	2Fn\	Do-	.	2B\	Do-	2g\	Do-	2g\	Do-
4F\	-mi-	.	4F\	-mi-	.	4A\	-mi-	4g\	-mi-	4a\	-mi-
!LO:TX:i:b:t=V.S.	!	!	!	!	!	!	!	!	!	!	!
4F\	-ne	.	4F\	-ne	.	4G\	-ne	4g\	-ne	4b\	-ne
!LO:PB:g=original	!	!	!LO:LB:g=original	!	!	!	!	!	!	!LO:PB:g=original	!
=27	=27	=27	=27	=27	=27	=27	=27	=27	=27	=27	=27
2E\	Fi-	.	2E\	fi-	.	2G\	Fi-	2g\	Fi-	2cc\	Fi-
2C/	-li	.	2C/	-li	.	2c\	-li	2e\	-li	2g\	-li
4C/	u-	.	4C/	u-	.	4c\	u-	4e\	u-	4g\	u-
4BB/	-ni-	.	4BB/	-ni-	.	4G/	-ni-	4fn\	-ni-	4a\	-ni-
=28	=28	=28	=28	=28	=28	=28	=28	=28	=28	=28	=28
2.C/	-ge-	.	2.C/	-ge-	.	2.E/	-ge-	2.e\	-ge-	2.g/	-ge-
4D/	-ni-	.	4D/	-ni-	.	4Fn/	-ni-	4d\	-ni-	4fn/	-ni-
2E\	-te	.	2E\	-te	.	2G/	-te	2c/	-te	2e/	-te
!	!	!	!	!	!	!LO:PB:g=original	!	!	!	!	!
=29	=29	=29	=29	=29	=29	=29	=29	=29	=29	=29	=29
4G\	Je-	.	4G\	Je-	.	4B\	Je-	4B/	Je-	4dd\	Je-
4A\	.	.	4A\	.	.	4A\	.	4c/	.	4cc\	.
4B\	.	.	4B\	.	.	4G\	.	4d\	.	4b\	.
4c\	.	.	4c\	.	.	4A\	.	4e\	.	4a\	.
4d\	.	.	4d\	.	.	4B\	.	4fn\	.	4g\	.
4B\	.	.	4B\	.	.	4d\	.	4d\	.	4b\	.
=30	=30	=30	=30	=30	=30	=30	=30	=30	=30	=30	=30
4c\	.	.	4c\	.	.	1G	.	4e\	.	4cc\	.
4G\	.	.	4G\	.	.	.	.	4d\	.	4b\	.
4E\	.	.	4E\	.	.	.	.	4c\	.	4ee\	.
4G\	.	.	4G\	.	.	.	.	4B\	.	4dd\	.
4E\	-su	.	4E\	-su	.	2G/	-su	4c\	-su	2cc\	-su
4C/	.	.	4C\	.	.	.	.	4e\	.	.	.
=31	=31	=31	=31	=31	=31	=31	=31	=31	=31	=31	=31
4Fn\	Chri-	.	4Fn\	Chri-	.	2A/	Chris-	4d\	chri-	4a\	Chri-
4D\	.	.	4D\	.	.	.	.	4f#\	.	4dd\	.
2G\	.	.	2G\	.	.	1G	.	2e\	.	2cc\	.
2GG/	.	.	2GG/	.	.	.	.	2d\	.	2b\	.
!LO:LB:g=original	!	!	!	!	!	!	!	!LO:LB:g=original	!	!	!
=32	=32	=32	=32	=32	=32	=32	=32	=32	=32	=32	=32
2C/	-ste.	.	2C/	-ste	.	2G/	-te.	2e\	-ste.	2cc\	-ste
2c\	Do-	.	2c\	Do-	.	2e\	Do-	2g\	Do-	2g/	Do-
4B\	-mi-	.	4B\	-mi-	.	4d\	-mi-	4g\	-mi-	4g/	-mi-
4A\	-ne	.	4A\	-ne	.	4c\	-ne	4f#X\	-ne	4a/	-ne
=33	=33	=33	=33	=33	=33	=33	=33	=33	=33	=33	=33
2G\	De-	.	2G\	De-	.	2B\	De-	2d\	De-	2dd\	De-
2B\	-us	.	2B\	-us	.	2d\	-us	2g\	-us	2dd\	-us
4A\	a-	.	4A\	a-	.	4c\	a-	4f#\	a-	4dd\	a-
4G\	-gnus	.	4G\	-gnus	.	4B\	-gnus	4g\	-gnus	4dd\	-gnus
!	!	!	!LO:LB:g=original	!	!	!	!	!	!	!LO:LB:g=original	!
=34	=34	=34	=34	=34	=34	=34	=34	=34	=34	=34	=34
2D\	De-	.	2D\	De-	.	2A\	De-	2f#\	De-	2dd\	De-
2D\	-i	.	2D\	-i	.	2A\	-i	2f#\	-i	2dd\	-i
2r	.	.	2r	.	.	2r	.	2r	.	2r	.
!	!	!	!	!	!	!LO:LB:g=original	!	!	!	!	!
=35	=35	=35	=35	=35	=35	=35	=35	=35	=35	=35	=35
4D\	Fi-	.	4D\	Fi-	.	2.A\	Fi-	4f#\	Fi-	2.cc\	Fi-
4E\	.	.	4E\	.	.	.	.	4g\	.	.	.
4F#\	.	.	4F#\	.	.	.	.	4a\	.	.	.
4D\	-li-	.	4D\	-li-	.	4A\	-li-	4f#\	-li-	4cc\	-li-
2G\	-us	.	2G\	-us	.	2B\	-us	2g\	-us	2dd\	-us
=36	=36	=36	=36	=36	=36	=36	=36	=36	=36	=36	=36
2C/	Pa-	.	2C/	Pa-	.	2c\	Pa-	2e\	Pa-	2a\	Pa-
1D	.	.	1D	.	.	2B\	.	2g\	.	1dd	.
.	.	.	.	.	.	2A\	.	2f#\	.	.	.
=37	=37	=37	=37	=37	=37	=37	=37	=37	=37	=37	=37
2GG/	-tris.	.	2GG/	-tris.	.	2B\	-tris.	2g\	-tris.	2dd\	-tris
2r	.	.	2r	.	.	2r	.	2r	.	2r	.
2E\	qui	.	2E\	Qui	.	2g\	qui	2b\	qui	2b\	qui
=38	=38	=38	=38	=38	=38	=38	=38	=38	=38	=38	=38
2E\	tol-	.	2E\	tol-	.	2g\	tol-	2b\	tol-	2ee\	tol-
2E\	-lis	.	2E\	-lis	.	4f#\	-lis	4a\	-lis	2ee\	-lis
.	.	.	.	.	.	4e\	.	4g\	.	.	.
!	!	!	!	!	!	!	!	!LO:LB:g=original	!	!	!
2E\	pec-	.	2E\	pec-	.	2B\	pec-	4f#\	pec-	2ee\	pec-
.	.	.	.	.	.	.	.	4e\	.	.	.
!LO:LB:g=original	!	!	!	!	!	!	!	!	!	!	!
=39	=39	=39	=39	=39	=39	=39	=39	=39	=39	=39	=39
2D#X\	-ca-	.	2D#X\	-ca-	.	2c\	-ca-	2a\	-ca-	2ff#X\	-ca-
2E\	-ta	.	2E\	-ta	.	2B\	-ta	2g\	-ta	2ee\	-ta
4r	.	.	4r	.	.	4r	.	4r	.	4r	.
4E\	pec-	.	4E\	pec-	.	4B\	pec-	4g\	pec-	4ee\	pec-
=40	=40	=40	=40	=40	=40	=40	=40	=40	=40	=40	=40
2E\	-ca-	.	2E\	-ca-	.	2B\	-ca-	2g\	-ca-	1b	-ca-
2F#\	.	.	2F#\	.	.	2A/	.	2f#\	.	.	.
4G\	-ta	.	4G\	-ta	.	2G/	-ta	2e\	-ta	2b\	-ta
4A\	.	.	4A\	.	.	.	.	.	.	.	.
!	!	!	!	!	!	!LO:LB:g=original	!	!	!	!	!
=41	=41	=41	=41	=41	=41	=41	=41	=41	=41	=41	=41
2B\	mun-	.	2B\	mun-	.	2G/	mun-	2e\	mun-	2b\	mun-
2BB/	-di	.	2BB/	-di	.	2F#/	-di	2d#X\	-di	2b\	-di
2r	.	.	2r	.	.	2r	.	2r	.	2r	.
!	!	!	!LO:LB:g=original	!	!	!	!	!	!	!LO:LB:g=original	!
=42	=42	=42	=42	=42	=42	=42	=42	=42	=42	=42	=42
1G	mi-	.	1G	mi-	.	1B	mi-	2g\	mi-	2dd\	mi-
.	.	.	.	.	.	.	.	2d\	.	2gg\	.
2G\	-se-	.	2G\	-se-	.	2c\	-se-	2g\	-se-	2ee\	-se-
=43	=43	=43	=43	=43	=43	=43	=43	=43	=43	=43	=43
2G\	-re-	.	2G\	-re-	.	2B\	-re-	2g\	-re-	2dd\	-re-
2D\	.	.	2D\	.	.	2A\	.	2f#\	.	2cc\	.
2G\	-re	.	2G\	-re	.	2d\	-re	2g\	-re	2b\	-re
=44	=44	=44	=44	=44	=44	=44	=44	=44	=44	=44	=44
2D\	no-	.	2D\	no-	.	1.d	no-	1a	no-	1cc	no-
2F#\	.	.	2F#\	.	.	.	.	.	.	.	.
2G\	.	.	2G\	.	.	.	.	2g\	.	2b\	.
=45	=45	=45	=45	=45	=45	=45	=45	=45	=45	=45	=45
2D\	-bis	.	2D\	-bis,	.	2d\	-bis.	2f#\	-bis.	2a\	-bis
2r	.	.	2r	.	.	2r	.	2r	.	2r	.
2D\	qui	.	2D\	qui	.	2d\	qui	2a\	qui	2cc\	qui
!LO:LB:g=original	!	!	!	!	!	!	!	!LO:LB:g=original	!	!	!
=46	=46	=46	=46	=46	=46	=46	=46	=46	=46	=46	=46
2G\	tol-	.	2G\	tol-	.	2d\	tol-	4a\	tol-	4cc\	tol-
.	.	.	.	.	.	.	.	4g\	.	4b\	.
2G\	-lis	.	2G\	-lis	.	2d\	-lis	2g\	-lis	2b\	-lis
4r	.	.	4r	.	.	4r	.	4r	.	4r	.
4G\	pec-	.	4G\	pec-	.	4d\	pec-	4g\	pec-	4b\	pec-
=47	=47	=47	=47	=47	=47	=47	=47	=47	=47	=47	=47
2G\	-ca-	.	2G\	-ca-	.	2B\	-ca-	2g\	-ca-	2b\	-ca-
2A\	.	.	2A\	.	.	2A\	.	2f#\	.	2cc\	.
2B\	-ta	.	2B\	-ta	.	2G/	-ta	2fn\	-ta	2dd\	-ta
!	!	!	!	!	!	!LO:LB:g=original	!	!	!	!	!
=48	=48	=48	=48	=48	=48	=48	=48	=48	=48	=48	=48
2c\	mun-	.	2c\	mun-	.	2G/	mun-	2g\	mun-	2ee\	mun-
2C/	-di	.	2C/	-di	.	2G/	-di	2g\	-di	2ee\	-di
2r	.	.	2r	.	.	2r	.	2r	.	2r	.
!	!	!	!	!	!	!	!	!	!	!LO:LB:g=original	!
=49	=49	=49	=49	=49	=49	=49	=49	=49	=49	=49	=49
2.G#X\	sus-	.	2.G#X\	sus-	.	2.B\	sus-	2.e\	Sus-	2.dd\	Sus-
4G#\	-ci-	.	4G#\	-ci-	.	4B\	-ci-	4e\	-ci-	4dd\	-ci-
2G#\	-pe	.	2G#\	-pe	.	2B\	-pe	2e\	-pe	2dd\	-pe
=50	=50	=50	=50	=50	=50	=50	=50	=50	=50	=50	=50
*	*ij	*	*	*	*	*	*ij	*	*ij	*	*ij
2.A\	sus-	.	2.A\	sus-	.	2.c\	sus-	2.e\	sus-	2.cc\	sus-
4B\	-ci-	.	4B\	-ci-	.	4B\	-ci-	4e\	-ci-	4dd\	-ci-
2c\	-pe	.	2c\	-pe	.	2A\	-pe	2e\	-pe	2ee\	-pe
*	*Xij	*	*	*	*	*	*Xij	*	*Xij	*	*Xij
!	!	!	!LO:LB:g=original	!	!	!	!	!	!	!	!
=51	=51	=51	=51	=51	=51	=51	=51	=51	=51	=51	=51
1d	de-	.	1d	de-	.	1G#X	de-	1fn	de-	1b	de-
2c\	-pre-	.	2c\	-pre-	.	2A/	-pre-	2e\	-pre-	2a\	-pre-
!	!	!	!	!	!	!	!	!LO:LB:g=original	!	!	!
=52	=52	=52	=52	=52	=52	=52	=52	=52	=52	=52	=52
1B	-ca-	.	1B	-ca-	.	1G	-ca-	1e	-ca-	1dd	-ca-
2A\	-ti-	.	2A\	-ti-	.	2A/	-ti-	2e\	-ti-	2cc\	-ti-
=53	=53	=53	=53	=53	=53	=53	=53	=53	=53	=53	=53
1G#X	-o-	.	1G#X	-o-	.	1B	-o-	1fn	-o-	1dd	-on-
2A\	-nem	.	2A\	-nem	.	2A\	-nem	2e\	-nem	2cc\	-em
!LO:LB:g=original	!	!	!	!	!	!	!	!	!	!	!
=54	=54	=54	=54	=54	=54	=54	=54	=54	=54	=54	=54
2D/	no-	.	2D\	no-	.	2G#X/	no-	2f#\	no-	2b\	nos-
1E	.	.	1E	.	.	2A/	.	1e	.	2cc\	.
.	.	.	.	.	.	2G#/	.	.	.	2b\	.
!	!	!	!	!	!	!LO:LB:g=original	!	!	!	!	!
=55	=55	=55	=55	=55	=55	=55	=55	=55	=55	=55	=55
2AA/	-stram,	.	2AA/	-stram,	.	2A/	-stram.	2e\	-stram,	2cc\	-tram,
2r	.	.	2r	.	.	2r	.	2r	.	2r	.
2A\	qui	.	2A\	qui	.	2A/	qui	2e\	qui	2cc#X\	qui
=56	=56	=56	=56	=56	=56	=56	=56	=56	=56	=56	=56
2Gn\	se-	.	2Gn\	se-	.	2A/	se-	2e\	se-	2cc#X\	se-
2G\	-des	.	2G\	-des	.	2A/	-des	2e\	-des	2cc#\	-des
2G\	ad	.	2G\	ad	.	2A/	ad	2e\	ad	2cc#\	ad
!	!	!	!	!	!	!	!	!	!	!LO:LB:g=original	!
=57	=57	=57	=57	=57	=57	=57	=57	=57	=57	=57	=57
2.F#X\	dex-	.	2.F#X\	dex-	.	2.A/	dex-	2.d\	dex-	2.dd\	dex-
4F#\	-te-	.	4F#\	-te-	.	4A/	-te-	4f#\	-te-	4dd\	-te-
2F#\	-ram	.	2F#\	-ram	.	2A/	-ram	2d\	-ram	2dd\	-ram
=58	=58	=58	=58	=58	=58	=58	=58	=58	=58	=58	=58
*	*	*	*	*	*	*	*	*	*ij	*	*
2F#\	ad	.	2F#\	ad	.	2A/	ad	2d\	ad	2ccn\	ad
2E\	dex-	.	2E\	dex-	.	2G/	dex-	2e\	dex-	2cc\	dex-
4D\	-te-	.	4D\	-te-	.	4F#/	-te-	4f#\	-te-	4cc\	-te-
4D\	-ram	.	4D\	-ram	.	4F#/	-ram	4f#\	-ram	4cc\	-ram
*	*	*	*	*	*	*	*	*	*Xij	*	*
=59	=59	=59	=59	=59	=59	=59	=59	=59	=59	=59	=59
2G\	Pa-	.	2G\	Pa-	.	2G/	Pa-	2g\	Pa-	2b\	Pa-
2G\	-tris	.	2G\	-tris	.	2G/	-tris	2d\	-tris	2b\	-tris
2r	.	.	2r	.	.	2r	.	2r	.	2r	.
!	!	!	!LO:LB:g=original	!	!	!	!	!LO:LB:g=original	!	!	!
=60	=60	=60	=60	=60	=60	=60	=60	=60	=60	=60	=60
1c	mi-	.	1c	mi-	.	1d	mi-	1f#	mi-	1a	mi-
2B\	-se-	.	2B\	-se-	.	2d\	-se-	2g\	-se-	2b\	-se-
!LO:LB:g=original	!	!	!	!	!	!	!	!	!	!	!
=61	=61	=61	=61	=61	=61	=61	=61	=61	=61	=61	=61
2A\	-re-	.	2A\	-re-	.	1d	-re-	2f#\	-re-	2a\	-re-
2F#\	.	.	2F#\	.	.	.	.	2a\	.	2cc\	.
2G\	-re	.	2G\	-re	.	2d\	-re	2g\	-re	2b\	-re
!	!	!	!	!	!	!LO:LB:g=original	!	!	!	!	!
=62	=62	=62	=62	=62	=62	=62	=62	=62	=62	=62	=62
2C/	no-	.	2C/	no-	.	2e\	no-	4e\	no-	4a\	no-
.	.	.	.	.	.	.	.	4a\	.	4cc\	.
1D	.	.	1D	.	.	1d	.	2g\	.	2b\	.
.	.	.	.	.	.	.	.	2f#\	.	2a\	.
=63	=63	=63	=63	=63	=63	=63	=63	=63	=63	=63	=63
1GG	-bis	.	1GG	-bis	.	1d	-bis	1g	-bis	1b	-bis
2r	.	.	2r	.	.	2r	.	2r	.	2r	.
=64	=64	=64	=64	=64	=64	=64	=64	=64	=64	=64	=64
!	!	!LO:DY:a:rj	!	!	!LO:DY:b:t=p&colon;	!	!	!	!	!	!
1c	mi-	p	1c	mi-	p	1d	mi-	1f#	mi-	1a	mi-
2B\	-se-	.	2B\	-se-	.	2d\	-se-	2g\	-se-	2b\	-se-
!	!	!	!	!	!	!	!	!	!	!LO:LB:g=original	!
=65	=65	=65	=65	=65	=65	=65	=65	=65	=65	=65	=65
2A\	-re-	.	2A\	-re-	.	1d	-re-	2f#\	-re-	2a\	-re-
2F#\	.	.	2F#\	.	.	.	.	2a\	.	2cc\	.
2G\	-re	.	2G\	-re	.	2d\	-re	2g\	-re	2b\	-re
=66	=66	=66	=66	=66	=66	=66	=66	=66	=66	=66	=66
!	!	!LO:DY:a:rj:t=fo	!	!	!LO:DY:a:t=fo	!	!	!	!	!	!
2C/	no-	f	2C/	no-	f	2e\	no-	4e\	no-	4a\	no-
.	.	.	.	.	.	.	.	4a\	.	4cc\	.
1D	.	.	1D	.	.	1d	.	2g\	.	2b\	.
.	.	.	.	.	.	.	.	2f#\	.	2a\	.
=67	=67	=67	=67	=67	=67	=67	=67	=67	=67	=67	=67
1GG	-bis.	.	1GG	-bis.	.	1d	-bis	1g	-bis.	1b	-bis
2r	.	.	2r	.	.	2r	.	2r	.	2r	.
=68	=68	=68	=68	=68	=68	=68	=68	=68	=68	=68	=68
1G	quo-	.	1G	Quo-	.	4G/	Quo-	2d\	Quo-	4b\	Quo-
.	.	.	.	.	.	4A/	.	.	.	4cc\	.
.	.	.	.	.	.	4B/	.	2g\	.	4dd\	.
.	.	.	.	.	.	4c/	.	.	.	4ee\	.
2D/	-ni-	.	2D\	-ni-	.	4B/	-ni-	2f#\	-ni-	4dd\	-ni-
.	.	.	.	.	.	4A/	.	.	.	4cc\	.
!	!	!	!	!	!	!	!	!LO:LB:g=original	!	!	!
=69	=69	=69	=69	=69	=69	=69	=69	=69	=69	=69	=69
2BB/	-am	.	2BB/	-am	.	2G/	-am	2d\	-am	2b\	-am
2GG/	.	.	2GG/	.	.	2r	.	2r	.	2r	.
2G\	tu	.	2G\	tu	.	2d\	tu	2g\	tu	2b\	tu
!LO:LB:g=original	!	!	!LO:PB:g=original	!	!	!LO:LB:g=original	!	!	!	!	!
=70	=70	=70	=70	=70	=70	=70	=70	=70	=70	=70	=70
2D\	so-	.	2D\	so-	.	1d	so-	2g\	so-	2b\	so-
2F#\	.	.	2F#\	.	.	.	.	4f#\	.	4a\	.
.	.	.	.	.	.	.	.	4g\	.	4b\	.
2D\	-lus	.	2D\	-lus	.	2d\	-lus	2a\	-lus	2cc\	-lus
=71	=71	=71	=71	=71	=71	=71	=71	=71	=71	=71	=71
2G\	San-	.	2G\	S(an)-	.	2d\	S(an)-	2a\	S(an)-	2cc\	S(an)-
2G\	-ctus	.	2G\	-ctus	.	2d\	-ctus	2g\	-ctus	2b\	-ctus
2G\	tu	.	2G\	tu	.	2B\	tu	2g\	tu	2dd\	tu
!	!	!	!	!	!	!	!	!	!	!LO:LB:g=original	!
=72	=72	=72	=72	=72	=72	=72	=72	=72	=72	=72	=72
2G\	so-	.	2G\	so-	.	2B/	so-	2g\	so-	2dd\	so-
2A\	.	.	2A\	.	.	2A/	.	2f#\	.	2cc\	.
4B\	-lus	.	4B\	-lus	.	2G/	-lus	2g\	-lus	2b\	-lus
4c\	.	.	4c\	.	.	.	.	.	.	.	.
=73	=73	=73	=73	=73	=73	=73	=73	=73	=73	=73	=73
2.d\	Do-	.	2.d\	Do-	.	2.d\	Do-	2.f#\	Do-	2.a\	Do-
4D/	-mi-	.	4D/	-mi-	.	4d\	-mi-	4f#\	-mi-	4a\	-mi-
4D/	-nus	.	4D/	-nus,	.	4d\	-nus	4f#\	-nus	4a\	-nus
4D/	tu	.	4D/	tu	.	4d\	tu	4f#\	tu	4a\	tu
=74	=74	=74	=74	=74	=74	=74	=74	=74	=74	=74	=74
2D\	so-	.	2D\	so-	.	2A\	so-	2f#\	so-	2cc\	so-
4D\	-lus	.	4D\	-lus	.	2c\	-lus	4f#\	-lus	2a\	-lus
4E\	.	.	4E\	.	.	.	.	4g\	.	.	.
4F#\	al-	.	4F#\	al-	.	2c\	al-	4a\	al-	2a\	al-
4D\	.	.	4D\	.	.	.	.	4f#\	.	.	.
=75	=75	=75	=75	=75	=75	=75	=75	=75	=75	=75	=75
2.G\	-tiſ-	.	2.G\	-tiſ-	.	2.d\	-tiſ-	2.b\	-tiſ-	2.dd\	-tiſ-
4F#\	-si-	.	4F#\	-si-	.	4d\	-si-	4a\	-si-	4cc\	-si-
2G\	-mus	.	2G\	-mus	.	2d\	-mus	2g\	-mus	2b\	-mus
!LO:LB:g=original	!	!	!	!	!	!	!	!LO:LB:g=original	!	!	!
=76	=76	=76	=76	=76	=76	=76	=76	=76	=76	=76	=76
2C/	Je-	.	2C/	Je-	.	2e\	Je-	1.g	Je-	1.cc	Je-
4c\	.	.	4c\	.	.	4e\	.	.	.	.	.
4B\	.	.	4B\	.	.	4d\	.	.	.	.	.
!	!	!	!	!	!	!LO:LB:g=original	!	!	!	!	!
4A\	.	.	4A\	.	.	4c\	.	.	.	.	.
4G\	.	.	4G\	.	.	4B\	.	.	.	.	.
!	!	!	!LO:LB:g=original	!	!	!	!	!	!	!	!
=77	=77	=77	=77	=77	=77	=77	=77	=77	=77	=77	=77
4F#\	.	.	4F#\	.	.	4A/	.	1a	.	1cc	.
4D\	.	.	4D\	.	.	4F#/	.	.	.	.	.
4E\	.	.	4E\	.	.	4G/	.	.	.	.	.
4F#\	.	.	4F#\	.	.	4A/	.	.	.	.	.
2G\	-su	.	2G\	-su	.	2B\	-su	2g\	-su	2dd\	-su
=78	=78	=78	=78	=78	=78	=78	=78	=78	=78	=78	=78
2C/	Chri-	.	2C/	Chris-	.	2A\	Chri-	2f#\	Chris-	2cc\	Chri-
1D	.	.	1D	.	.	2B\	.	2g\	.	1dd	.
.	.	.	.	.	.	2A\	.	2f#\	.	.	.
=79	=79	=79	=79	=79	=79	=79	=79	=79	=79	=79	=79
1GG	-ste.	.	1GG	-te.	.	1B	-ste.	1g	-te.	1dd	-ste
2G\	Cum	.	2G\	Cum	.	2B\	Cum	2g\	Cum	2dd\	Cum
!	!	!	!	!	!	!	!	!	!	!LO:LB:g=original	!
=80	=80	=80	=80	=80	=80	=80	=80	=80	=80	=80	=80
1G	San-	.	1G	S(an)-	.	1G	S(an)-	1d	San-	1b	San-
2G\	-cto	.	2G\	-cto	.	2G/	-cto	2e\	-cto	2cc\	-cto
=81	=81	=81	=81	=81	=81	=81	=81	=81	=81	=81	=81
2G\	spi-	.	2G\	spi-	.	2G/	Spi-	1d	Spi-	1b	Spi-
4F#\	.	.	4F#\	.	.	1F#	-ri-	.	.	.	.
4D\	.	.	4D\	.	.	.	.	.	.	.	.
4E\	-ri-	.	4E\	-ri-	.	.	.	2c/	-ri-	2a\	-ri-
4F#\	.	.	4F#\	.	.	.	.	.	.	.	.
=82	=82	=82	=82	=82	=82	=82	=82	=82	=82	=82	=82
2G\	-tu	.	2G\	-tu	.	2d\	-tu	2B/	-tu	2g/	-tu
4G\	in	.	4G\	in	.	1d	in	2d\	in	1b	in
4A\	.	.	4A\	.	.	.	.	.	.	.	.
!LO:LB:g=original	!	!	!	!	!	!	!	!	!	!	!
4B\	.	.	4B\	.	.	.	.	2g\	.	.	.
4c\	.	.	4c\	.	.	.	.	.	.	.	.
=83	=83	=83	=83	=83	=83	=83	=83	=83	=83	=83	=83
2.d\	glo-	.	2.d\	glo-	.	2.d\	glo-	2.fn\	glo-	2.a\	glo-
4D/	-ri-	.	4D/	-ri-	.	4d\	-ri-	4f\	-ri-	4a\	-ri-
2D/	-a	.	2D/	-a	.	2d\	-a	2f\	-a	2a\	-a
!	!	!	!	!	!	!LO:LB:g=original	!	!LO:LB:g=original	!	!	!
=84	=84	=84	=84	=84	=84	=84	=84	=84	=84	=84	=84
2F#\	De-	.	2F#\	De-	.	1d	De-	2a\	De-	2cc\	De-
2D\	.	.	2D\	.	.	.	.	2g\	.	2b\	.
2D\	-i	.	2D\	-i	.	2d\	-i	2f#\	-i	2a\	-i
!	!	!	!LO:LB:g=original	!	!	!	!	!	!	!	!
=85	=85	=85	=85	=85	=85	=85	=85	=85	=85	=85	=85
2G\	Pa-	.	2G\	Pa-	.	2d\	Pa-	2g\	Pa-	2b\	Pa-
2F#\	.	.	2F#\	.	.	2c\	.	2a\	.	2cc\	.
2G\	-tris	.	2G\	-tris	.	2B\	-tris	2b\	-tris	2dd\	-tris
=86	=86	=86	=86	=86	=86	=86	=86	=86	=86	=86	=86
2C/	a-	.	2C/	a-	.	2e\	a-	2a\	a-	2cc\	a-
1D	.	.	1D	.	.	1d	.	2g\	.	2b\	.
.	.	.	.	.	.	.	.	2f#\	.	2a\	.
=87	=87	=87	=87	=87	=87	=87	=87	=87	=87	=87	=87
1G	-men	.	1G	-men	.	1d	-men	1g	-men	1b	-men
2D/	a-	.	2D\	a-	.	2d\	a-	2f#\	a-	2a\	a-
!	!	!	!	!	!	!	!	!	!	!LO:LB:g=original	!
=88	=88	=88	=88	=88	=88	=88	=88	=88	=88	=88	=88
1GG	-men.	.	1.GG	-men	.	1d	-men	1.g	-men	1b	-men
2r	.	.	.	.	.	2r	.	.	.	2r	.
==	==	==	==	==	==	==	==	==	==	==	==
*-	*-	*-	*-	*-	*-	*-	*-	*-	*-	*-	*-
!!!system-decoration: [(s1,s2,s3,s4)]s5
!!!ENC: Berenika Jozajtis
!!!END: 2024-03-10
!!!EED: Andrzej Borzym
!!!END: 2025-02-17
